SVG_Azure_Grouped/Application/Integration Service Environment.svg

<?xml version="1.0" encoding="UTF-8" standalone="no"?>
<!-- Generated by Microsoft Visio, SVG Export Integration Service Environment.svg Page-1 -->

<svg
   xmlns:dc="http://purl.org/dc/elements/1.1/"
   xmlns:cc="http://creativecommons.org/ns#"
   xmlns:rdf="http://www.w3.org/1999/02/22-rdf-syntax-ns#"
   xmlns:svg="http://www.w3.org/2000/svg"
   xmlns="http://www.w3.org/2000/svg"
   xmlns:sodipodi="http://sodipodi.sourceforge.net/DTD/sodipodi-0.dtd"
   xmlns:inkscape="http://www.inkscape.org/namespaces/inkscape"
   width="0.78739876in"
   height="0.78739876in"
   viewBox="0 0 56.692778 56.692998"
   xml:space="preserve"
   class="st7"
   version="1.1"
   id="svg49"
   sodipodi:docname="Integration Service Environment.svg"
   style="font-size:12px;overflow:visible;color-interpolation-filters:sRGB;fill:none;fill-rule:evenodd;stroke-linecap:square;stroke-miterlimit:3"
   inkscape:version="0.92.5 (2060ec1f9f, 2020-04-08)"><metadata
   id="metadata55"><rdf:RDF><cc:Work
       rdf:about=""><dc:format>image/svg+xml</dc:format><dc:type
         rdf:resource="http://purl.org/dc/dcmitype/StillImage" /></cc:Work></rdf:RDF></metadata><defs
   id="defs53" /><sodipodi:namedview
   pagecolor="#ffffff"
   bordercolor="#666666"
   borderopacity="1"
   objecttolerance="10"
   gridtolerance="10"
   guidetolerance="10"
   inkscape:pageopacity="0"
   inkscape:pageshadow="2"
   inkscape:window-width="640"
   inkscape:window-height="480"
   id="namedview51"
   showgrid="false"
   inkscape:zoom="1.7193066"
   inkscape:cx="37.795072"
   inkscape:cy="23.277884"
   inkscape:window-x="0"
   inkscape:window-y="0"
   inkscape:window-maximized="0"
   inkscape:current-layer="svg49" />
	<style
   type="text/css"
   id="style2">
	<![CDATA[
		.st1 {fill:#0072c6;stroke:none;stroke-linecap:butt;stroke-width:12.24}
		.st2 {fill:#ffffff;fill-opacity:0.8;stroke:none;stroke-linecap:butt;stroke-width:12.24}
		.st3 {fill:#3999c6;stroke:none;stroke-linecap:butt;stroke-width:12.24}
		.st4 {fill:#57a300;stroke:none;stroke-linecap:butt;stroke-width:12.24}
		.st5 {fill:#804998;stroke:none;stroke-linecap:butt;stroke-width:12.24}
		.st6 {fill:#ffffff;stroke:none;stroke-linecap:butt;stroke-width:12.24}
		.st7 {fill:none;fill-rule:evenodd;font-size:12px;overflow:visible;stroke-linecap:square;stroke-miterlimit:3}
	]]>
	</style>

	<g
   id="g47"
   transform="translate(-12.24016,-12.240003)">
		<title
   id="title4">Page-1</title>
		<g
   id="group13857-1"
   transform="translate(12.24,-34.0157)">
			<title
   id="title6">Integration Service Environment.13857</title>
			<g
   id="group13858-2">
				<title
   id="title8">Sheet.13858</title>
				<g
   id="shape13859-3">
					<title
   id="title10">Sheet.13859</title>
					<circle
   cx="28.3465"
   cy="74.602203"
   class="st1"
   id="ellipse12"
   r="28.3465"
   style="fill:#0072c6;stroke:none;stroke-width:12.23999977;stroke-linecap:butt" />
				</g>
				<g
   id="shape13860-5"
   transform="translate(3.43953,-3.43953)">
					<title
   id="title15">Sheet.13860</title>
					<circle
   cx="24.9069"
   cy="78.041702"
   class="st2"
   id="ellipse17"
   r="24.9069"
   style="fill:#ffffff;fill-opacity:0.8;stroke:none;stroke-width:12.23999977;stroke-linecap:butt" />
				</g>
				<g
   id="shape13861-7"
   transform="translate(15.3,-18.3837)">
					<title
   id="title20">Sheet.13861</title>
					<path
   d="M 14.11,87.53 V 81.6 h -2.96 v 5.93 c 0,1.07 -0.95,2.02 -2.49,2.49 L 4.63,90.85 C 1.9,91.68 0,93.82 0,96.19 v 6.76 h 2.97 v -6.76 c 0,-1.07 0.94,-2.02 2.49,-2.49 l 4.03,-0.95 c 2.73,-0.71 4.62,-2.85 4.62,-5.22 z"
   class="st3"
   id="path22"
   inkscape:connector-curvature="0"
   style="fill:#3999c6;stroke:none;stroke-width:12.23999977;stroke-linecap:butt" />
				</g>
				<g
   id="shape13862-9"
   transform="translate(27.279,-18.3837)">
					<title
   id="title25">Sheet.13862</title>
					<path
   d="M 0,87.53 V 81.6 h 2.97 v 5.93 c 0,1.07 0.94,2.02 2.49,2.49 l 4.03,0.83 c 2.73,0.83 4.62,2.97 4.62,5.34 v 6.76 h -2.96 v -6.76 c 0,-1.07 -0.95,-2.02 -2.49,-2.49 L 4.63,92.75 C 1.9,92.04 0,89.9 0,87.53 Z"
   class="st3"
   id="path27"
   inkscape:connector-curvature="0"
   style="fill:#3999c6;stroke:none;stroke-width:12.23999977;stroke-linecap:butt" />
				</g>
				<g
   id="shape13863-11"
   transform="translate(11.7418,-12.6907)">
					<title
   id="title30">Sheet.13863</title>
					<path
   d="m 10.2,100.34 v -5.46 c 0,-1.3 -1.07,-2.37 -2.37,-2.37 H 2.37 C 1.07,92.51 0,93.58 0,94.88 v 5.46 c 0,1.3 1.07,2.37 2.37,2.37 h 5.46 c 1.3,0 2.37,-1.07 2.37,-2.37 z m 12.81,0.24 v -5.46 c 0,-1.3 1.07,-2.37 2.37,-2.37 h 5.46 c 1.3,0 2.37,1.07 2.37,2.37 v 5.46 c 0,1.3 -1.07,2.37 -2.37,2.37 h -5.46 c -1.3,0 -2.37,-1.07 -2.37,-2.37 z"
   class="st4"
   id="path32"
   inkscape:connector-curvature="0"
   style="fill:#57a300;stroke:none;stroke-width:12.23999977;stroke-linecap:butt" />
				</g>
				<g
   id="shape13864-13"
   transform="translate(22.4162,-36.6488)">
					<title
   id="title35">Sheet.13864</title>
					<path
   d="m 8.29,94.66 v 4.72 H 3.57 V 94.66 Z M 9.31,91.09 H 2.55 C 1.15,91.09 0,92.24 0,93.64 v 6.76 c 0,1.4 1.15,2.55 2.55,2.55 h 6.76 c 1.4,0 2.55,-1.15 2.55,-2.55 v -6.76 c 0,-1.4 -1.15,-2.55 -2.55,-2.55 z"
   class="st5"
   id="path37"
   inkscape:connector-curvature="0"
   style="fill:#804998;stroke:none;stroke-width:12.23999977;stroke-linecap:butt" />
				</g>
				<g
   id="shape13865-15"
   transform="translate(25.9744,-40.2069)">
					<title
   id="title40">Sheet.13865</title>
					<rect
   x="0"
   y="98.204498"
   width="4.7441802"
   height="4.7441802"
   class="st6"
   id="rect42"
   style="fill:#ffffff;stroke:none;stroke-width:12.23999977;stroke-linecap:butt" />
				</g>
			</g>
		</g>
	</g>
</svg>

<?xml version="1.0" encoding="UTF-8" standalone="no"?>
<!DOCTYPE svg PUBLIC "-//W3C//DTD SVG 1.1//EN" "http://www.w3.org/Graphics/SVG/1.1/DTD/svg11.dtd">
<!-- Generated by Microsoft Visio, SVG Export Integration Service Environment.svg Page-1 -->
<svg xmlns="http://www.w3.org/2000/svg" xmlns:xlink="http://www.w3.org/1999/xlink" xmlns:ev="http://www.w3.org/2001/xml-events"
		width="1.1274in" height="1.42984in" viewBox="0 0 81.1729 102.949" xml:space="preserve" color-interpolation-filters="sRGB"
		class="st7">
	<style type="text/css">
	<![CDATA[
		.st1 {fill:#0072c6;stroke:none;stroke-linecap:butt;stroke-width:12.24}
		.st2 {fill:#ffffff;fill-opacity:0.8;stroke:none;stroke-linecap:butt;stroke-width:12.24}
		.st3 {fill:#3999c6;stroke:none;stroke-linecap:butt;stroke-width:12.24}
		.st4 {fill:#57a300;stroke:none;stroke-linecap:butt;stroke-width:12.24}
		.st5 {fill:#804998;stroke:none;stroke-linecap:butt;stroke-width:12.24}
		.st6 {fill:#ffffff;stroke:none;stroke-linecap:butt;stroke-width:12.24}
		.st7 {fill:none;fill-rule:evenodd;font-size:12px;overflow:visible;stroke-linecap:square;stroke-miterlimit:3}
	]]>
	</style>

	<g>
		<title>Page-1</title>
		<g id="group13510-1" transform="translate(12.24,-34.0157)">
			<title>Integration Service Environment.13510</title>
			<g id="group13511-2">
				<title>Sheet.13511</title>
				<g id="shape13512-3">
					<title>Sheet.13512</title>
					<ellipse cx="28.3465" cy="74.6022" rx="28.3465" ry="28.3465" class="st1"/>
				</g>
				<g id="shape13513-5" transform="translate(3.43953,-3.43953)">
					<title>Sheet.13513</title>
					<ellipse cx="24.9069" cy="78.0417" rx="24.9069" ry="24.9069" class="st2"/>
				</g>
				<g id="shape13514-7" transform="translate(15.3,-18.3837)">
					<title>Sheet.13514</title>
					<path d="M14.11 87.53 L14.11 81.6 L11.15 81.6 L11.15 87.53 C11.15 88.6 10.2 89.55 8.66 90.02 L4.63 90.85 C1.9
								 91.68 0 93.82 0 96.19 L0 102.95 L2.97 102.95 L2.97 96.19 C2.97 95.12 3.91 94.17 5.46 93.7 L9.49
								 92.75 C12.22 92.04 14.11 89.9 14.11 87.53 Z" class="st3"/>
				</g>
				<g id="shape13515-9" transform="translate(27.279,-18.3837)">
					<title>Sheet.13515</title>
					<path d="M0 87.53 L0 81.6 L2.97 81.6 L2.97 87.53 C2.97 88.6 3.91 89.55 5.46 90.02 L9.49 90.85 C12.22 91.68 14.11
								 93.82 14.11 96.19 L14.11 102.95 L11.15 102.95 L11.15 96.19 C11.15 95.12 10.2 94.17 8.66 93.7 L4.63
								 92.75 C1.9 92.04 0 89.9 0 87.53 Z" class="st3"/>
				</g>
				<g id="shape13516-11" transform="translate(11.7418,-12.6907)">
					<title>Sheet.13516</title>
					<path d="M10.2 100.34 L10.2 94.88 C10.2 93.58 9.13 92.51 7.83 92.51 L2.37 92.51 C1.07 92.51 0 93.58 0 94.88 L0
								 100.34 C0 101.64 1.07 102.71 2.37 102.71 L7.83 102.71 C9.13 102.71 10.2 101.64 10.2 100.34 ZM23.01
								 100.58 L23.01 95.12 C23.01 93.82 24.08 92.75 25.38 92.75 L30.84 92.75 C32.14 92.75 33.21 93.82 33.21
								 95.12 L33.21 100.58 C33.21 101.88 32.14 102.95 30.84 102.95 L25.38 102.95 C24.08 102.95 23.01 101.88
								 23.01 100.58 Z" class="st4"/>
				</g>
				<g id="shape13517-13" transform="translate(22.4162,-36.6488)">
					<title>Sheet.13517</title>
					<path d="M8.29 94.66 L8.29 99.38 L3.57 99.38 L3.57 94.66 L8.29 94.66 ZM9.31 91.09 L2.55 91.09 C1.15 91.09 0 92.24
								 0 93.64 L0 100.4 C0 101.8 1.15 102.95 2.55 102.95 L9.31 102.95 C10.71 102.95 11.86 101.8 11.86 100.4
								 L11.86 93.64 C11.86 92.24 10.71 91.09 9.31 91.09 Z" class="st5"/>
				</g>
				<g id="shape13518-15" transform="translate(25.9744,-40.2069)">
					<title>Sheet.13518</title>
					<rect x="0" y="98.2045" width="4.74418" height="4.74418" class="st6"/>
				</g>
			</g>
		</g>
	</g>
</svg>
